!!!COM: Palestrina, Giovanni Perluigi da
!!!OPR: Quinti toni
!!!OTL: Sanctus
**kern	**kern	**kern	**kern	**kern	**kern
*Ibass	*Itenor	*Itenor	*Icalto	*Icant	*Icant
!Bassus	!Tenor 2	!Tenor 1	!Altus	!Cantus 2	!Cantus 1
*clefF4	*clefGv2	*clefGv2	*clefG2	*clefG2	*clefG2
*k[b-]	*k[b-]	*k[b-]	*k[b-]	*k[b-]	*k[b-]
*F:ion	*F:ion	*F:ion	*F:ion	*F:ion	*F:ion
*M4/2	*M4/2	*M4/2	*M4/2	*M4/2	*M4/2
=1	=1	=1	=1	=1	=1
0r	0r	0r	1r	0r	0cc
.	.	.	[1f	.	.
=2	=2	=2	=2	=2	=2
0r	0r	0r	1f]	0r	1a
.	.	.	1d	.	[1dd
=3	=3	=3	=3	=3	=3
0r	0r	0r	1.g	0r	2dd]
.	.	.	.	.	2cc
.	.	.	.	.	2b-
.	.	.	2f	.	2a
=4	=4	=4	=4	=4	=4
0r	0r	0r	2e	1r	2g
.	.	.	2d	.	2b-
.	.	.	2.c	[1cc	2a
.	.	.	.	.	4g
.	.	.	4d	.	4f
=5	=5	=5	=5	=5	=5
0r	0r	0r	2e	1cc]	2g
.	.	.	2.f	.	2a
.	.	.	.	1a	2f
.	.	.	4e	.	.
.	.	.	4d	.	[2ff
.	.	.	4c	.	.
=6	=6	=6	=6	=6	=6
0r	0r	0r	2.B-	1.dd	4ff]
.	.	.	.	.	4ee
.	.	.	.	.	4dd
.	.	.	4c	.	4cc
.	.	.	4d	.	2b-
.	.	.	4e	.	.
.	.	.	2f	2cc	2a
=7	=7	=7	=7	=7	=7
0r	0r	1r	2g	2b-	1dd
.	.	.	1f	2a	.
.	.	[1c	.	1g	[1cc
.	.	.	2e	.	.
=8	=8	=8	=8	=8	=8
0F	1r	1c]	2.f	2.a	1cc]
.	.	.	4g	4b-	.
.	[1f	1A	1a	1cc	1r
=9	=9	=9	=9	=9	=9
1D	1f]	1.d	0r	2b-	0r
.	.	.	.	2a	.
[1G	1d	.	.	2b-	.
.	.	2c	.	2cc	.
=10	=10	=10	=10	=10	=10
2G]	1.g	2B-	1r	1dd	0r
2F	.	2A	.	.	.
2E	.	1G	1g	1r	.
2D	2f	.	.	.	.
=11	=11	=11	=11	=11	=11
1C	2e	2.c	1g	0r	1r
.	2d	.	.	.	.
.	.	4B-	.	.	.
[1F	2.c	4A	2.a	.	2r
.	.	4G	.	.	.
.	.	4F	.	.	2cc
.	4B-	4G	4g	.	.
=12	=12	=12	=12	=12	=12
2F]	2A	4A	2f	2r	2dd
.	.	4F	.	.	.
2E	2G	1c	2g	2cc	2ee
1D	1F	.	2a	1dd	1ff
.	.	2B	2d	.	.
=13	=13	=13	=13	=13	=13
1C	2r	1c	1g	1ee	4ee
.	.	.	.	.	4dd
.	2c	.	.	.	4cc
.	.	.	.	.	4b-
1r	2d	1r	2r	2ff	2a
.	2e	.	[2c	4ee	2g
.	.	.	.	4dd	.
=14	=14	=14	=14	=14	=14
1F	2.f	0r	2c]	2cc	1a
.	.	.	2.d	2a	.
.	4e	.	.	.	.
2G	2d	.	.	2b-	1r
.	.	.	4e	.	.
2A	2c	.	[2f	[2a	.
=15	=15	=15	=15	=15	=15
1B-	1d	1r	2f]	2a]	1r
.	.	.	4e	2g	.
.	.	.	4d	.	.
1A	2c	2r	2e	1a	2r
.	2A	2c	2f	.	2cc
=16	=16	=16	=16	=16	=16
1G	1B-	2d	1g	1r	2b-
.	.	2e	.	.	2g
[1F	1A	2.f	2c	2r	2.a
.	.	.	[2f	2cc	.
.	.	4e	.	.	4g
=17	=17	=17	=17	=17	=17
2F]	1r	2d	2f]	2dd	4a
.	.	.	.	.	4b
2E	.	1c	2g	2ee	2cc
1D	1F	.	2a	1ff	1f
.	.	2B	2f	.	.
=18	=18	=18	=18	=18	=18
1C	2G	1c	2r	2ff	2r
.	2A	.	2c	2ee	2cc
1BB-	2.B-	1r	1d	1dd	2f
.	.	.	.	.	[2g
.	4A	.	.	.	.
=19	=19	=19	=19	=19	=19
0C	2G	0c	2e	0cc	2g]
.	2F	.	1f	.	2a
.	1G	.	.	.	1g
.	.	.	2e	.	.
=20	=20	=20	=20	=20	=20
1F	1F	0c	2f	2r	2r
.	.	.	1f	1cc	1a
1r	1r	.	.	.	.
.	.	.	2e	2cc	2g
=21	=21	=21	=21	=21	=21
0r	0r	0r	2f	1dd	2a
.	.	.	1g	.	1b-
.	.	.	.	2ee-	.
.	.	.	2f	2dd	2a
=22	=22	=22	=22	=22	=22
0r	0r	1r	2e	4cc	2g
.	.	.	.	4b-	.
.	.	.	2f	4a	1cc
.	.	.	.	4g	.
.	.	2r	1d	2f	.
.	.	[2f	.	2f	2b
=23	=23	=23	=23	=23	=23
1r	1r	2f]	1c	1g	0cc
.	.	2e	.	.	.
2r	2r	2f	1r	2.a	.
[2F	[2c	[2a	.	.	.
.	.	.	.	4b-	.
=24	=24	=24	=24	=24	=24
2F]	2c]	2a]	0r	1cc	2r
2E	2c	2g	.	.	2cc
2F	1d	4f	.	1r	2a
.	.	4e	.	.	.
[2G	.	4d	.	.	2b-
.	.	4c	.	.	.
=25	=25	=25	=25	=25	=25
2G]	2e	2B-	0r	0r	2g
2F	2d	2A	.	.	2a
2E	4c	2G	.	.	2cc
.	4B-	.	.	.	.
2F	4A	[2c	.	.	2cc
.	4G	.	.	.	.
=26	=26	=26	=26	=26	=26
1D	1F	2c]	1r	0r	4dd
.	.	.	.	.	4ee
.	.	2B-	.	.	4ff
.	.	.	.	.	4dd
1C	1G	1c	2r	.	2.ee
.	.	.	[2g	.	.
.	.	.	.	.	4dd
=27	=27	=27	=27	=27	=27
0r	1A	2c	2g]	2r	1cc
.	.	2c	2f	1cc	.
.	1G	2d	1g	.	1r
.	.	2d	.	2b-	.
=28	=28	=28	=28	=28	=28
0r	1F	1f	1a	1cc	2r
.	.	.	.	.	1cc
.	1r	1r	1g	2.dd	.
.	.	.	.	.	2b-
.	.	.	.	8cc	.
.	.	.	.	8b-	.
=29	=29	=29	=29	=29	=29
0r	0r	0r	2f	2a	2cc
.	.	.	4B-	1b-	1dd
.	.	.	4c	.	.
.	.	.	4d	.	.
.	.	.	4e	.	.
.	.	.	2f	[2a	2cc
=30	=30	=30	=30	=30	=30
0r	0r	0r	2g	4a]	2b-
.	.	.	.	4g	.
.	.	.	2c	1g	2cc
.	.	.	1d	.	1a
.	.	.	.	2f	.
=31	=31	=31	=31	=31	=31
2r	2r	1r	1e	2g	1g
2C	2c	.	.	2g	.
2C	2c	2r	2e	2g	1r
2C	2c	2c	2e	2g	.
=32	=32	=32	=32	=32	=32
2.F	1A	2c	2.f	2a	0r
.	.	2c	.	2f	.
4E	.	.	4g	.	.
4D	2F	1f	[1a	2r	.
4E	.	.	.	.	.
4F	2A	.	.	2cc	.
4G	.	.	.	.	.
=33	=33	=33	=33	=33	=33
4A	1c	2f	2a]	2cc	0r
4B-	.	.	.	.	.
1c	.	2e	2g	2cc	.
.	1G	1d	2r	1gg	.
2B	.	.	[2g	.	.
=34	=34	=34	=34	=34	=34
2c	0r	0c	2g]	2ee	2r
2F	.	.	2.a	2ff	2cc
1A	.	.	.	2.ee	2cc
.	.	.	4b-	.	.
.	.	.	[2cc	.	2cc
.	.	.	.	8dd	.
.	.	.	.	8cc	.
=35	=35	=35	=35	=35	=35
1G	2r	2r	2cc]	1dd	1gg
.	2G	2d	2b	.	.
1C	2G	2e	2cc	1cc	2ee
.	2G	[2g	4c	.	2ee
.	.	.	4d	.	.
=36	=36	=36	=36	=36	=36
2C	2.c	4g]	4e	2r	1ee
.	.	4f	4f	.	.
2C	.	4e	2g	2cc	.
.	4B-	4d	.	.	.
[1F	4A	2.c	2a	2cc	2ff
.	4G	.	.	.	.
.	4F	.	2a	2cc	2cc
.	4G	4B-	.	.	.
=37	=37	=37	=37	=37	=37
2F]	4A	2A	1.f	0ff	2cc
.	4B-	.	.	.	.
2E	1c	2G	.	.	2cc
1D	.	1F	.	.	1dd
.	2B	.	2d	.	.
=38	=38	=38	=38	=38	=38
1C	2.c	2G	2r	1ee	2g
.	.	2c	2g	.	2cc
.	8B-	.	.	.	.
.	8A	.	.	.	.
1r	1G	2B-	2b-	2r	[1dd
.	.	2G	2b-	2dd	.
=39	=39	=39	=39	=39	=39
0r	0r	1d	2a	2ff	2dd]
.	.	.	2f	2ff	2a
.	.	1c	4g	2ee	1cc
.	.	.	4f	.	.
.	.	.	4g	2cc	.
.	.	.	4a	.	.
=40	=40	=40	=40	=40	=40
0r	0r	0B-	2.b-	2.dd	2f
.	.	.	.	.	4b-
.	.	.	4a	4cc	4cc
.	.	.	2g	2b-	4dd
.	.	.	.	.	4ee-
.	.	.	[2f	2a	2dd
=41	=41	=41	=41	=41	=41
1r	1r	1c	2f]	2g	1cc
.	.	.	2e	2g	.
2r	2r	2.B-	1f	2b-	1dd
2BB-	2d	.	.	2b-	.
.	.	8A	.	.	.
.	.	8G	.	.	.
=42	=42	=42	=42	=42	=42
2D	2f	1F	1r	2a	2r
2D	2f	.	.	2f	2a
2C	2e	1r	2r	1g	2cc
2C	2c	.	2g	.	2cc
=43	=43	=43	=43	=43	=43
1G	2d	2r	2b-	1g	2b-
.	2B-	2d	2b-	.	2g
1F	1c	2f	2a	2r	4a
.	.	.	.	.	4g
.	.	2f	2f	2cc	4a
.	.	.	.	.	4b-
=44	=44	=44	=44	=44	=44
1C	2c	2e	4g	2ee	1cc
.	.	.	4f	.	.
.	2e	2c	4g	2ee	.
.	.	.	4a	.	.
1BB-	1f	2.d	2b-	2.dd	2f
.	.	.	4B-	.	2b-
.	.	4c	4c	4ee	.
=45	=45	=45	=45	=45	=45
1BB-	1d	1B-	4d	1ff	2b-
.	.	.	4e	.	.
.	.	.	4f	.	2b-
.	.	.	4g	.	.
2F	[1c	1A	4a	1f	2cc
.	.	.	4g	.	.
2F	.	.	[2f	.	2a
=46	=46	=46	=46	=46	=46
0C	0c]	0G	2f]	0g	0cc
.	.	.	4e	.	.
.	.	.	4d	.	.
.	.	.	1e	.	.
=47	=47	=47	=47	=47	=47
0F	0c	0F	0f	0a	0cc
==	==	==	==	==	==
*-	*-	*-	*-	*-	*-
!!!CDT: 1525/^1526/-1594/2/2
!!!OCY: Italia
!!!AGN: Mass (Free)
!!!AST: renaissance, vocal
!!!ASW: Motet 1532 (Penet)
!!!PWK: Masses, Book 10
!!!RNB: Cadence finals: C
!!!YOR: Le Opere Complete, v. 27, p. 120
!!!YOO: Rome, Italy: Fratelli Scalera
!!!END: 1992//
!!!EED: John Miller
!!!YEC: Copyright 2000, John Miller
!!!YEN: United States of America
!!!YEM: Rights to all derivative electronic formats reserved.
!!!YEM: Refer to licensing agreement for further details.
!!!YEM: This file must be accompanied by the licensing agreement.
!!!YEM: A copy of the licensing agreement may be found at http://www.music-cog.ohio-state.edu/HumdrumDatabases/Palestrina/license.txt
!!!EMD: converted to Humdrum by Bret Aarden
